X:1
T:Title
%%score { ( 1 3 ) | ( 2 4 ) }
L:1/8
M:4/4
K:F
V:1 treble nm="Grand Piano"
V:3 treble 
V:2 bass 
V:4 bass 
V:1
 z4 z2[Q:1/4=100] c>d | c2 A>_A =A2 F>F | [DF]2 [B,D]2 [A,C]2 [A,C]>[B,D] | F2 F>G A2 c2 | %4
 [Ec]6 c>d | c2 A>_A =A2 F>F | [DF]2 [B,D]2 [A,C]2 F>G | A2 c>A [B,EG]2 [CFA]>[B,CG] | %8
[M:3/4] [F,A,CF]6 |[M:1/4] c>c |[M:4/4] c6 z2 | A6 z2 | A2 c>d c2 A2 | [CEG]6 c>c | c6 z2 | A6 z2 | %16
 A2 c>A [B,EG]2 [CFA]>[B,CG] |[M:3/4] [F,A,CF]6 |] %18
V:2
 z4 z2 [F,A,F]>[F,B,F] | [F,A,F]2 [F,CF]>[F,=B,F] [F,CF]2 [F,A,C]>[F,A,C] | %2
 [B,,B,]2 [B,,F,]2 [F,,F,]2 [F,,F,]>[F,,F,] | [F,A,C]2 [F,A,C]>[F,B,C] [F,CF]2 [F,A,F]2 | %4
 [C,G,]6 [F,A,F]>[F,B,F] | [F,A,F]2 [F,CF]>[F,=B,F] [F,CF]2 [F,A,C]>[F,A,C] | %6
 [B,,B,]2 [B,,F,]2 [F,,F,]2 [F,A,C]>[F,B,C] | [F,CF]2 [F,A,F]>[F,CF] C,2 C,>C, |[M:3/4] F,,6 | %9
[M:1/4][K:treble] A>A |[M:4/4] A6[K:bass][K:treble] z2 | F6[K:bass] z2 | %12
 [F,CF]2 [F,A,F]>[F,B,F] [F,A,F]2 [F,CF]2 | C,6[K:treble] A>A | A6[K:bass][K:treble] z2 | %15
 F6[K:bass] z2 | [F,CF]2 [F,A,F]>[F,CF] C,2 C,>C, |[M:3/4] F,,6 |] %18
V:3
 x8 | x8 | x8 | x8 | x8 | x8 | x8 | x8 |[M:3/4] x6 |[M:1/4] x2 |[M:4/4] z2 F>F F2 A>A | %11
 z2 C>C C2 F>G | x8 | x8 | z2 F>F F2 A>A | z2 C>C C2 F>G | x8 |[M:3/4] x6 |] %18
V:4
 x8 | x8 | x8 | x8 | x8 | x8 | x8 | x8 |[M:3/4] x6 |[M:1/4][K:treble] x2 | %10
[M:4/4] z2[K:bass] F,>F, F,2[K:treble] F>F | z2[K:bass] F,>F, F,2 [F,A,C]>[F,B,C] | x8 | %13
 x6[K:treble] x2 | z2[K:bass] F,>F, F,2[K:treble] F>F | z2[K:bass] F,>F, F,2 [F,A,C]>[F,B,C] | x8 | %17
[M:3/4] x6 |] %18

